remix/Logos/centos-fill.svg

<svg viewBox="0 0 24 24" fill="currentColor" xmlns="http://www.w3.org/2000/svg"><path d="M12 13.0607L16.47 17.531L12 22L7.53 17.53L12 13.0607ZM3.99968 16.1207L7.87868 19.9997L4 20L3.99968 16.1207ZM19.9997 16.1207L20 20L16.1207 19.9997L19.9997 16.1207ZM17.53 7.53L22 12L17.531 16.47L13.0607 12L17.53 7.53ZM6.47 7.53L10.9393 12L6.469 16.469L2 12L6.47 7.53ZM12 2L16.469 6.469L12 10.9393L7.53 6.47L12 2ZM7.87868 3.99968L3.99968 7.87868L4 4L7.87868 3.99968ZM20 4L19.9997 7.87868L16.1207 3.99968L20 4Z"/></svg>

<svg viewBox="0 0 24 24" xmlns="http://www.w3.org/2000/svg"><path fill="none" d="M0 0h24v24H0Z"/><path d="M12 13.06l4.47 4.47L12 21.99l-4.47-4.47L12 13.05Zm-8 3.06L7.87 20H3.99v-3.88Zm16 0V20h-3.88L20 16.12Zm-2.47-8.59L22 12l-4.47 4.47L13.06 12l4.46-4.47Zm-11.06 0L10.94 12l-4.48 4.46 -4.47-4.47 4.47-4.47ZM12 2l4.46 4.469 -4.47 4.47 -4.47-4.47 4.47-4.47ZM7.87 4L3.99 7.87l0-3.88h3.87Zm12.12 0v3.87l-3.88-3.88 3.88 0Z"/></svg>
